X: 28056
T: Mr And Mrs Walsh
R: jig
M: 6/8
K: Adorian
|:Adc d2 c|Adc ecd|Adc dAF|G2 G AFD|
Adc d2 c|Adc ecd|gdf dAF|G2 G AFD:|
|:E2 C EFG|FAD FAD|E2 C EFG|AFD GFD|
E2 C EFG|FAD FAD|E2 C EFG|FAD G2 F:|

